Icons/Colored/RoadUpgradeQuay.svg

<svg xmlns="http://www.w3.org/2000/svg" xml:space="preserve" fill-rule="evenodd" stroke-linejoin="round" stroke-miterlimit="2" clip-rule="evenodd" viewBox="0 0 64 64">
  <g id="grey">
    <path fill="#434343" fill-rule="nonzero" d="m5.466 24.859 29.61 25.369 23.109-13.727.009-2.02H35.302L5.467 22.815l-.001 2.044Z"/>
    <path fill="#d4d4d4" d="M35.302 22.803H5.433v15.345l29.869 25.015v-40.36Z"/>
    <path fill="#716e6e" d="M38.466 46.09h-3.164v17.073l3.164-2.103V46.09Z"/>
    <path fill="#d4d4d4" fill-rule="nonzero" d="m5.994 22.665 34.087 22.391 13.869-8.215L28.534 8.799 5.994 22.665Z"/>
    <path fill="#929191" fill-rule="nonzero" d="m5.433 22.803 29.871 25.1 11.644-6.915-30.016-25.114-11.499 6.929Z"/>
    <path fill="#929191" fill-rule="nonzero" d="m18.73 14.95 29.853 25.07 9.618-5.533L28.534 8.799l-3.222 1.982-6.582 4.169Z"/>
    <path fill="#808080" fill-rule="nonzero" d="m47.254 41.49 11.313-6.694-11.313 6.694Z"/>
    <path fill="#716e6e" fill-rule="nonzero" d="m5.433 22.803 29.871 25.1 3.162-1.878L8.327 21.059l-2.894 1.744Z"/>
  </g>
</svg>

<?xml version="1.0" encoding="UTF-8" standalone="no"?>
<!DOCTYPE svg PUBLIC "-//W3C//DTD SVG 1.1//EN" "http://www.w3.org/Graphics/SVG/1.1/DTD/svg11.dtd">
<svg width="100%" height="100%" viewBox="0 0 64 64" version="1.1" xmlns="http://www.w3.org/2000/svg" xmlns:xlink="http://www.w3.org/1999/xlink" xml:space="preserve" xmlns:serif="http://www.serif.com/" style="fill-rule:evenodd;clip-rule:evenodd;stroke-linejoin:round;stroke-miterlimit:2;">
    <g id="surface1">
        <path d="M5.465,24.859L35.074,50.227L58.184,36.5L58.195,34.48L35.301,34.48L5.469,22.816L5.465,24.859Z" style="fill:#434343;fill-rule:nonzero;"/>
        <path d="M35.301,22.805L5.434,22.805L5.434,38.148L35.301,63.164L35.301,22.805Z" style="fill:#d4d4d4;"/>
        <path d="M38.465,46.09L35.301,46.09L35.301,63.164L38.465,61.059L38.465,46.09Z" style="fill:#706e6e;"/>
        <path d="M5.992,22.664L40.082,45.055L53.949,36.84L28.535,8.801L5.992,22.664Z" style="fill:#d4d4d4;fill-rule:nonzero;"/>
        <path d="M5.434,22.805L35.305,47.902L46.949,40.988L16.934,15.875L5.434,22.805Z" style="fill:#929090;fill-rule:nonzero;"/>
        <path d="M18.73,14.949L48.582,40.02L58.199,34.488L28.535,8.801L25.313,10.781L18.73,14.949Z" style="fill:#929090;fill-rule:nonzero;"/>
        <path d="M47.254,41.488L58.566,34.797L47.254,41.488Z" style="fill:#7f7f7f;fill-rule:nonzero;"/>
        <path d="M5.434,22.805L35.305,47.902L38.465,46.023L8.328,21.059L5.434,22.805Z" style="fill:#706e6e;fill-rule:nonzero;"/>
    </g>
</svg>
